X:1
T:Childhood, 88.86
T: Henry Walford Davies, 1923
T:Childhood, 88.86
T:Public Domain
C:Henry Walford Davies, 1923
Z:Public Domain
%%score ( 1 2 ) ( 3 4 )
L:1/8
M:4/4
K:G
V:1 treble 
V:2 treble 
V:3 bass 
V:4 bass 
V:1
 (GB) | [Gd]3 [Ge] (dc)([GB][FA]) | G2 [EG]2 [DG]2 D2 | E2 F2 G2 [FA]2 | [DB]2 (AG) [FA]2 [Gd]2 | %5
 [Ge]2 (dc) [Gd]2 [GB]2 | (cB)(AG) [DF]2 D2 | [CE]2 [DG]2 [EG]2 (BA) | G6 |] %9
V:2
 G2 | x4 G2 x2 | G2 x2 D2 x2 | E2 F2 G2 x2 | x2 E2 x4 | x2 G2 x4 | G2 E2 x D2 x | x6 F2 | G6 |] %9
V:3
!mf! [G,B,]2 | [G,B,]3 [G,C] (B,E)(DC) | [G,B,]2 [C,C]2 [G,B,]2 B,2 | C2 A,2 B,2 D2 | %4
 G,2 [E,^C]2 [D,D]2 [B,D]2 | C2 ([B,D][A,E]) [B,D]2 [G,D]2 | [E,C]2 (CB,) [D,A,]2 [G,B,]2 | %7
 [C,G,]2 [B,,G,]2 [E,B,]2 (DC) | [G,B,]6 |] %9
V:4
 x2 | x4 G,2 G,2 | x6 B,2 | C2 A,2 B,2 D2 | G,2 x6 | C2 x6 | x2 A,2 x4 | x6 D,2 | x6 |] %9

